src/imgs/whoWeAre/07_softserve.svg

<?xml version="1.0" encoding="UTF-8"?>
<!DOCTYPE svg PUBLIC "-//W3C//DTD SVG 1.1//EN" "http://www.w3.org/Graphics/SVG/1.1/DTD/svg11.dtd">
<!-- Creator: CorelDRAW 2020 -->
<svg xmlns="http://www.w3.org/2000/svg" xml:space="preserve" width="520px" height="90px" version="1.1" style="shape-rendering:geometricPrecision; text-rendering:geometricPrecision; image-rendering:optimizeQuality; fill-rule:evenodd; clip-rule:evenodd"
viewBox="0 0 520 90"
 xmlns:xlink="http://www.w3.org/1999/xlink"
 xmlns:xodm="http://www.corel.com/coreldraw/odm/2003">
 <defs>
  <style type="text/css">
   <![CDATA[
    .fil0 {fill:#2B2B2B}
   ]]>
  </style>
 </defs>
 <g id="Слой_x0020_1">
  <metadata id="CorelCorpID_0Corel-Layer"/>
  <g id="_1204941984">
   <path class="fil0" d="M490.25 36.19c7.36,0 12.09,5.38 12.25,12.61l-26.72 0c0.29,-3.41 2.58,-6.9 4.54,-8.82 2.52,-2.48 6.46,-3.79 9.93,-3.79zm-30.8 17.07c0,7.56 -0.25,10.81 3.09,18.06 4.55,9.83 16.15,17.56 27.34,17.56 9.03,0 14.82,-0.59 22.8,-5.4 1.88,-1.14 3,-2.02 4.66,-3.14 -0.46,-1.96 -1.82,-3.65 -2.72,-5.43 -0.52,-1.02 -0.86,-1.83 -1.38,-2.71 -0.59,-1.01 -1.15,-1.62 -1.46,-2.99 -2.62,0.22 -9.78,8.67 -22.43,6.1 -7.49,-1.52 -13.94,-7.53 -13.94,-15.75l42.3 0 0.37 -8.16c0,-7.32 -3.59,-15.33 -7.32,-19.02 -6.92,-6.86 -12.24,-8.07 -21.99,-8.07 -8.38,0 -16.05,4.35 -20.32,8.63 -2.39,2.39 -4.62,5.31 -5.98,8.49 -1.29,3.01 -3.02,7.66 -3.02,11.83z"/>
   <path class="fil0" d="M306.2 36.19c2.87,0 6.83,1.67 8.59,3.65 1.75,1.95 3.2,5.43 3.28,8.96l-26.71 0c0.1,-1.25 1.07,-4.04 1.63,-5.04 1,-1.8 1.69,-2.61 3.09,-3.96 2.24,-2.17 5.87,-3.61 10.12,-3.61zm-0.74 52.69c7.54,0 10.34,0.1 17.6,-2.81 2.06,-0.82 3.41,-1.52 5.19,-2.59 1.88,-1.14 3.01,-2.02 4.67,-3.14 -0.51,-2.18 -5.16,-9.36 -5.57,-11.13 -2.55,0.21 -9.86,8.65 -22.42,6.1 -4.66,-0.95 -6.81,-2.48 -9.59,-5.26 -2.33,-2.32 -4.35,-5.95 -4.35,-10.49l42.3 0 0.37 -7.42c0,-10.98 -5.74,-21.11 -14.79,-25.28 -11.7,-5.38 -27.12,-2.36 -35.96,7.19l-3.31 4.48c-8.58,14.45 -5.58,34.06 8.15,44.31 4.13,3.09 11.85,6.04 17.71,6.04z"/>
   <path class="fil0" d="M414.93 87.39l18.55 0 22.26 -61.59 -16.7 0c-0.13,1.57 -1.17,4.09 -1.71,5.7l-5.66 16.98c-1.38,4.14 -7.03,19.85 -7.1,22.96 -0.98,-0.72 -0.79,-1.15 -1.12,-2.59 -0.95,-4.13 -5.09,-15.87 -6.53,-20.19l-7.56 -22.86 -16.33 0c0.12,1.46 2.05,6.09 2.65,7.74l13.82 38.13c0.64,1.83 5.3,14.26 5.43,15.72z"/>
   <path class="fil0" d="M249.05 69.95c0,2.89 -1.54,4.63 -4.3,5.35 -4.9,1.28 -10.33,-0.22 -14.63,-2.37 -3.45,-1.73 -3.32,-2.22 -5.56,-3.72 -1.49,1 -6.04,8.71 -7.42,10.76 4.33,2.9 2.12,2.48 9.52,6.07 5.56,2.7 10.6,2.84 16.83,2.84 20.54,0 31.57,-23.95 9.4,-35.01 -3.31,-1.65 -6.45,-2.92 -9.83,-4.27 -14.44,-5.76 -6.29,-11.93 -1.8,-11.93 8.69,0 10.23,0.86 16.7,5.2l5.7 -11.44c-2.78,-3.88 -12.96,-7.12 -19.06,-7.12 -6.37,0 -12.28,0.44 -17.52,4 -1.17,0.8 -2.63,1.78 -3.55,2.76 -3.98,4.24 -5.88,11.72 -2.9,18.33 2.31,5.11 8.23,8.77 13.47,11.01 4.02,1.73 14.95,5.15 14.95,9.54z"/>
   <path class="fil0" d="M65.74 56.22c0,-12.8 10.22,-23.37 23.01,-23.37 21.67,0 29.99,26.34 16.43,40.55 -13.68,14.33 -39.44,5.27 -39.44,-17.18zm-9.65 -0.37c0,5.12 0.99,10.04 2.84,13.86 3.47,7.14 7.92,12.4 15.21,15.96 12.42,6.07 28.21,3.54 37.9,-6.15 4.43,-4.43 9.36,-12.75 9.36,-21.44 0,-8.97 -0.94,-13.03 -5.71,-20.26 -0.69,-1.05 -0.78,-1.23 -1.62,-2.1 -3.32,-3.46 -5.93,-6.25 -10.85,-8.44 -22.05,-9.81 -47.13,4.95 -47.13,28.57z"/>
   <path class="fil0" d="M363.72 40.27c0,-1.88 0.37,-2.02 0.37,-4.08l0 -10.39 -15.22 0 0 61.59 15.59 0c0,-7.34 -0.56,-26.1 0.91,-32.49 1.72,-7.52 7.78,-14.63 15.79,-14.63l5.19 0 0 -15.22c-1.54,-0.03 -1.41,-0.37 -2.22,-0.37 -8.57,0 -15.55,5.32 -18.86,12.32 -0.28,0.59 -0.4,0.93 -0.68,1.55 -0.17,0.36 -0.19,0.44 -0.35,0.76l-0.52 0.96z"/>
   <path class="fil0" d="M4.14 40.27c0,15.9 13.63,16.98 25.11,22.76 3.05,1.53 7.55,3.76 7.55,8.04 0,11.04 -15.89,11.71 -26.13,4.6 -1.34,-0.93 -2.4,-1.97 -3.56,-2.75 -1.08,0.72 -4.3,5.34 -5.19,6.68 0.65,0.97 0.94,1.17 1.85,1.86 7.81,5.97 12.99,7.42 23.38,7.42 8.9,0 19.29,-6.91 19.29,-17.07 0,-21.46 -32.65,-17.21 -32.65,-30.43 0,-10.36 16.07,-10.37 23.91,-4.98 1.18,0.81 1.75,1.63 3.18,2.01 0.31,-1.14 3.31,-5.9 4.08,-7.05 -6.12,-6.45 -13.19,-7.05 -21.89,-7.05 -9.02,0 -18.93,7.09 -18.93,15.96z"/>
   <path class="fil0" d="M136.25 25.05l0 1.49 -8.17 0 0 8.16 8.17 0 0 52.69 9.64 0 0 -52.69 14.48 0c1.85,0 1.11,-3.16 1.11,-8.16l-15.59 0c0,-5.63 0.21,-12.47 6.17,-15.35 3.76,-1.82 5.67,-1.35 10.16,-1.35l0 -8.53c-3.77,0 -6.66,-1.3 -13.47,1.37 -3.42,1.33 -4.49,2.32 -6.85,4.65 -3.95,3.91 -5.65,10.02 -5.65,17.72z"/>
   <path class="fil0" d="M179.29 26.54l-8.16 0 0 8.16 8.16 0 0 32.66c0,11.89 8.04,21.52 19.67,21.52 8.37,0 6.68,1.88 6.68,-8.91 -2.35,0 -4.29,1.1 -9.24,-0.78 -1.61,-0.6 -2.88,-1.77 -4.04,-3.01 -2.13,-2.29 -3.42,-6.36 -3.42,-10.68l0 -30.8 15.58 0 0 -8.16 -15.58 0 0 -17.81 -9.65 0 0 17.81z"/>
  </g>
 </g>
</svg>

<svg width="520" height="90" viewBox="0 0 520 90" fill="none" xmlns="http://www.w3.org/2000/svg">
 <path fill-rule="evenodd" clip-rule="evenodd" d="M490.25 36.19C497.61 36.19 502.34 41.57 502.5 48.8H475.78C476.07 45.39 478.36 41.9 480.32 39.98C482.84 37.5 486.78 36.19 490.25 36.19ZM459.45 53.26C459.45 60.82 459.2 64.07 462.54 71.32C467.09 81.15 478.69 88.88 489.88 88.88C498.91 88.88 504.7 88.29 512.68 83.48C514.56 82.34 515.68 81.46 517.34 80.34C516.88 78.38 515.52 76.69 514.62 74.91C514.1 73.89 513.76 73.08 513.24 72.2C512.65 71.19 512.09 70.58 511.78 69.21C509.16 69.43 502 77.88 489.35 75.31C481.86 73.79 475.41 67.78 475.41 59.56H517.71L518.08 51.4C518.08 44.08 514.49 36.07 510.76 32.38C503.84 25.52 498.52 24.31 488.77 24.31C480.39 24.31 472.72 28.66 468.45 32.94C466.06 35.33 463.83 38.25 462.47 41.43C461.18 44.44 459.45 49.09 459.45 53.26V53.26Z" fill="#2B2B2B"/>
 <path fill-rule="evenodd" clip-rule="evenodd" d="M306.2 36.19C309.07 36.19 313.03 37.86 314.79 39.84C316.54 41.79 317.99 45.27 318.07 48.8H291.36C291.46 47.55 292.43 44.76 292.99 43.76C293.99 41.96 294.68 41.15 296.08 39.8C298.32 37.63 301.95 36.19 306.2 36.19V36.19ZM305.46 88.88C313 88.88 315.8 88.98 323.06 86.07C325.12 85.25 326.47 84.55 328.25 83.48C330.13 82.34 331.26 81.46 332.92 80.34C332.41 78.16 327.76 70.98 327.35 69.21C324.8 69.42 317.49 77.86 304.93 75.31C300.27 74.36 298.12 72.83 295.34 70.05C293.01 67.73 290.99 64.1 290.99 59.56H333.29L333.66 52.14C333.66 41.16 327.92 31.03 318.87 26.86C307.17 21.48 291.75 24.5 282.91 34.05L279.6 38.53C271.02 52.98 274.02 72.59 287.75 82.84C291.88 85.93 299.6 88.88 305.46 88.88V88.88Z" fill="#2B2B2B"/>
 <path fill-rule="evenodd" clip-rule="evenodd" d="M414.93 87.39H433.48L455.74 25.8H439.04C438.91 27.37 437.87 29.89 437.33 31.5L431.67 48.48C430.29 52.62 424.64 68.33 424.57 71.44C423.59 70.72 423.78 70.29 423.45 68.85C422.5 64.72 418.36 52.98 416.92 48.66L409.36 25.8H393.03C393.15 27.26 395.08 31.89 395.68 33.54L409.5 71.67C410.14 73.5 414.8 85.93 414.93 87.39Z" fill="#2B2B2B"/>
 <path fill-rule="evenodd" clip-rule="evenodd" d="M249.05 69.95C249.05 72.84 247.51 74.58 244.75 75.3C239.85 76.58 234.42 75.08 230.12 72.93C226.67 71.2 226.8 70.71 224.56 69.21C223.07 70.21 218.52 77.92 217.14 79.97C221.47 82.87 219.26 82.45 226.66 86.04C232.22 88.74 237.26 88.88 243.49 88.88C264.03 88.88 275.06 64.93 252.89 53.87C249.58 52.22 246.44 50.95 243.06 49.6C228.62 43.84 236.77 37.67 241.26 37.67C249.95 37.67 251.49 38.53 257.96 42.87L263.66 31.43C260.88 27.55 250.7 24.31 244.6 24.31C238.23 24.31 232.32 24.75 227.08 28.31C225.91 29.11 224.45 30.09 223.53 31.07C219.55 35.31 217.65 42.79 220.63 49.4C222.94 54.51 228.86 58.17 234.1 60.41C238.12 62.14 249.05 65.56 249.05 69.95V69.95Z" fill="#2B2B2B"/>
 <path fill-rule="evenodd" clip-rule="evenodd" d="M65.74 56.22C65.74 43.42 75.96 32.85 88.75 32.85C110.42 32.85 118.74 59.19 105.18 73.4C91.5 87.73 65.74 78.67 65.74 56.22V56.22ZM56.09 55.85C56.09 60.97 57.08 65.89 58.93 69.71C62.4 76.85 66.85 82.11 74.14 85.67C86.56 91.74 102.35 89.21 112.04 79.52C116.47 75.09 121.4 66.77 121.4 58.08C121.4 49.11 120.46 45.05 115.69 37.82C115 36.77 114.91 36.59 114.07 35.72C110.75 32.26 108.14 29.47 103.22 27.28C81.17 17.47 56.09 32.23 56.09 55.85V55.85Z" fill="#2B2B2B"/>
 <path fill-rule="evenodd" clip-rule="evenodd" d="M363.72 40.27C363.72 38.39 364.09 38.25 364.09 36.19V25.8H348.87V87.39H364.46C364.46 80.05 363.9 61.29 365.37 54.9C367.09 47.38 373.15 40.27 381.16 40.27H386.35V25.05C384.81 25.02 384.94 24.68 384.13 24.68C375.56 24.68 368.58 30 365.27 37C364.99 37.59 364.87 37.93 364.59 38.55C364.42 38.91 364.4 38.99 364.24 39.31L363.72 40.27V40.27Z" fill="#2B2B2B"/>
 <path fill-rule="evenodd" clip-rule="evenodd" d="M4.13998 40.27C4.13998 56.17 17.77 57.25 29.25 63.03C32.3 64.56 36.8 66.79 36.8 71.07C36.8 82.11 20.91 82.78 10.67 75.67C9.32998 74.74 8.26998 73.7 7.10998 72.92C6.02998 73.64 2.80998 78.26 1.91998 79.6C2.56998 80.57 2.85998 80.77 3.76998 81.46C11.58 87.43 16.76 88.88 27.15 88.88C36.05 88.88 46.44 81.97 46.44 71.81C46.44 50.35 13.79 54.6 13.79 41.38C13.79 31.02 29.86 31.01 37.7 36.4C38.88 37.21 39.45 38.03 40.88 38.41C41.19 37.27 44.19 32.51 44.96 31.36C38.84 24.91 31.77 24.31 23.07 24.31C14.05 24.31 4.13998 31.4 4.13998 40.27V40.27Z" fill="#2B2B2B"/>
 <path fill-rule="evenodd" clip-rule="evenodd" d="M136.25 25.05V26.54H128.08V34.7H136.25V87.39H145.89V34.7H160.37C162.22 34.7 161.48 31.54 161.48 26.54H145.89C145.89 20.91 146.1 14.07 152.06 11.19C155.82 9.37001 157.73 9.84002 162.22 9.84002V1.31001C158.45 1.31001 155.56 0.0100149 148.75 2.68001C145.33 4.01002 144.26 5.00001 141.9 7.33001C137.95 11.24 136.25 17.35 136.25 25.05V25.05Z" fill="#2B2B2B"/>
 <path fill-rule="evenodd" clip-rule="evenodd" d="M179.29 26.54H171.13V34.7H179.29V67.36C179.29 79.25 187.33 88.88 198.96 88.88C207.33 88.88 205.64 90.76 205.64 79.97C203.29 79.97 201.35 81.07 196.4 79.19C194.79 78.59 193.52 77.42 192.36 76.18C190.23 73.89 188.94 69.82 188.94 65.5V34.7H204.52V26.54H188.94V8.73004H179.29V26.54V26.54Z" fill="#2B2B2B"/>
</svg>
